X: 21281
M: 2/4
L: 1/16
K: D
V: 1 name="1"
f>e |\
d2A2 F2A2 | dfce d2cd | e2ee e2e2 | e6 de |\
f2ff f2f2 | f2gf e2fe | d2d2 cdec | d4 z2 H|]
d>c |\
d2dd d2d2 | dDEF GABc | d2A2 F2D2 | Aafd Agec |\
d2dd d2d2 | d2dd defg | fedc edcB | ABcd efg"^D.C."e |]


